seeds/icons/secure_safe.svg

<svg id="Layer_1" enable-background="new 0 0 512 512" height="1.5rem" viewBox="0 0 512 512" width="1.5rem" xmlns="http://www.w3.org/2000/svg"><g><path d="m424.7 0h-337.4c-30.419 0-55.166 24.748-55.166 55.167v337.399c0 25.219 17.017 46.525 40.166 53.077v51.357c0 8.284 6.716 15 15 15h64.266c8.284 0 15-6.716 15-15v-49.267h178.867v49.267c0 8.284 6.716 15 15 15h64.267c8.284 0 15-6.716 15-15v-51.356c23.149-6.552 40.166-27.858 40.166-53.077v-337.4c0-30.419-24.747-55.167-55.166-55.167zm-298.301 94.267h259.199v259.2h-259.199zm-30 178.867h-34.265v-98.534h34.266v98.534zm40.166 208.866h-34.265v-34.267h34.266v34.267zm273.135 0h-34.268v-34.267h34.268zm40.166-89.434c0 13.877-11.289 25.167-25.166 25.167h-64.268-208.867-64.265c-13.877 0-25.166-11.29-25.166-25.167v-89.433h34.266v65.333c0 8.284 6.716 15 15 15h289.199c8.284 0 15-6.716 15-15v-289.2c0-8.284-6.716-15-15-15h-289.2c-8.284 0-15 6.716-15 15v65.334h-34.265v-89.433c0-13.877 11.289-25.167 25.166-25.167h337.4c13.877 0 25.166 11.29 25.166 25.167z"/><path d="m333.148 167.932 12.984-12.985c5.858-5.857 5.858-15.355 0-21.213-5.857-5.857-15.355-5.857-21.213 0l-12.985 12.985c-15.722-11.432-35.054-18.186-55.936-18.186s-40.213 6.754-55.935 18.185l-12.983-12.984c-5.858-5.856-15.355-5.857-21.214-.001-5.857 5.858-5.858 15.355-.001 21.214l12.984 12.985c-11.43 15.723-18.184 35.053-18.184 55.935s6.754 40.213 18.184 55.935l-12.984 12.986c-5.857 5.858-5.856 15.355.001 21.214 2.93 2.929 6.768 4.393 10.606 4.393s7.679-1.465 10.607-4.394l12.983-12.984c15.722 11.431 35.053 18.185 55.935 18.185s40.214-6.754 55.936-18.185l12.987 12.983c2.929 2.929 6.768 4.394 10.606 4.394s7.678-1.465 10.606-4.394c5.858-5.857 5.858-15.355 0-21.213l-12.985-12.984c11.432-15.723 18.186-35.055 18.186-55.937s-6.754-40.213-18.185-55.934zm-142.481 55.934c0-36.024 29.308-65.333 65.332-65.333 36.025 0 65.334 29.309 65.334 65.333 0 36.025-29.309 65.334-65.334 65.334-36.024 0-65.332-29.308-65.332-65.334z"/></g></svg>

<svg xmlns="http://www.w3.org/2000/svg" width="1.5rem" height="1.5rem" viewBox="0 0 512 512"><path d="M424.7 0H87.3C56.881 0 32.134 24.748 32.134 55.167v337.399c0 25.219 17.017 46.525 40.166 53.077V497c0 8.284 6.716 15 15 15h64.266c8.284 0 15-6.716 15-15v-49.267h178.867V497c0 8.284 6.716 15 15 15H424.7c8.284 0 15-6.716 15-15v-51.356c23.149-6.552 40.166-27.858 40.166-53.077v-337.4C479.866 24.748 455.119 0 424.7 0M126.399 94.267h259.199v259.2H126.399zm-30 178.867H62.134V174.6H96.4v98.534zM136.565 482H102.3v-34.267h34.266V482zm273.135 0h-34.268v-34.267H409.7zm40.166-89.434c0 13.877-11.289 25.167-25.166 25.167H87.3c-13.877 0-25.166-11.29-25.166-25.167v-89.433H96.4v65.333c0 8.284 6.716 15 15 15h289.199c8.284 0 15-6.716 15-15v-289.2c0-8.284-6.716-15-15-15h-289.2c-8.284 0-15 6.716-15 15V144.6H62.134V55.167C62.134 41.29 73.423 30 87.3 30h337.4c13.877 0 25.166 11.29 25.166 25.167z"/><path d="m333.148 167.932 12.984-12.985c5.858-5.857 5.858-15.355 0-21.213-5.857-5.857-15.355-5.857-21.213 0l-12.985 12.985c-15.722-11.432-35.054-18.186-55.936-18.186s-40.213 6.754-55.935 18.185l-12.983-12.984c-5.858-5.856-15.355-5.857-21.214-.001-5.857 5.858-5.858 15.355-.001 21.214l12.984 12.985c-11.43 15.723-18.184 35.053-18.184 55.935s6.754 40.213 18.184 55.935l-12.984 12.986c-5.857 5.858-5.856 15.355.001 21.214 2.93 2.929 6.768 4.393 10.606 4.393s7.679-1.465 10.607-4.394l12.983-12.984c15.722 11.431 35.053 18.185 55.935 18.185s40.214-6.754 55.936-18.185L324.92 314c2.929 2.929 6.768 4.394 10.606 4.394s7.678-1.465 10.606-4.394c5.858-5.857 5.858-15.355 0-21.213l-12.985-12.984c11.432-15.723 18.186-35.055 18.186-55.937s-6.754-40.213-18.185-55.934m-142.481 55.934c0-36.024 29.308-65.333 65.332-65.333 36.025 0 65.334 29.309 65.334 65.333S292.024 289.2 255.999 289.2c-36.024 0-65.332-29.308-65.332-65.334"/></svg>
